X: 28374
T: Muineira De Ourense
R: slide
M: 12/8
K: Gmajor
"D"~A3 AGF|"A"EFG "D"A3|"G"~B3 BAA|"D"dAA "G"G2F|
"D"DFE DFF|"D"FED "G"B2A|"D"DFE ~D3|"A"EDE "D"F2D|
"D"DFE DFF|"D"FED "G"B2A|"D"DFE ~D3|"A"EDE "D"D3:|
"G"BAB dBd|"G"dcB "D"c2A|"D"AGA cAc|"D"cBA "G"B2G|
"G"BAB "Em"EFG|"G"GAB "D"d2c|"C"cdc "G"BcB|"D"ABA "G"G3:|

